X:1
T:La mer
T:Quatre heures du matin
T:La mer
T:1. Quatre heures du matin
T:Marie Jaëll 
T:Jean Richepin 
T:Creative Commons copyright waiver (CC0 1.0 Universal)
T:Creative Commons copyright waiver (CC0 1.0 Universal)
T:Creative Commons copyright waiver (CC0 1.0 Universal)
T:Creative Commons copyright waiver (CC0 1.0 Universal)
C:Marie Jaëll
Z:Jean Richepin
Z:Creative Commons copyright waiver (CC0 1.0 Universal)
%%score 1 { ( 2 4 ) | ( 3 5 ) }
L:1/8
Q:1/4=116
M:3/4
K:Eb
V:1 treble nm="Chant\nVoice"
V:2 treble nm="Piano"
V:4 treble 
V:3 bass 
V:5 bass 
V:1
"^Allegretto" z2 z2 | z6 | z6 | z2 z!p! D F A | c3 c d c | B G E E F2- | F z G!<(! G A F/ F/!<)! | %7
w: |||Au fir- ma-|\- ment tein- té de|rose et de li- las  |_ On di- rait qu'u- ne|
 G A/ A/!>(! F G/ G/ ^F!>)! G | G!<(! G!<)! e2 B!>(! G!>)! | !>!E4!p! E E/ E/ | F ^F F G z2 | %11
w: main non- cha- lante et dis- trai- te|De l'au- rore en- dor-|mie ou- vre la|gor- ge- ret- te|
!<(! G A A B/ B/!<)!!>(! B2- | B!>)!!pp! =E E F F ^F | ^F4 z2 | z6 | z6 | z6 | z2!mf! z F F2- | %18
w: Et dé- cou- vre le sein|_ voi- lé de fal- ba-|las.||||Mon quart|
 F =E F4 | z6 | z2 z2 E2 | E2 _D2 _C2 | B,4 z2 | z6 | z2 C2 _D2 | B,4 z2 | z6 | z2 z2 F F | %28
w: _ est fait.||Je|vais me cou-|cher.||Je suis|las||Mais a-|
 G z A A c c | z G A c!<(! e d!<)! |!>(! c2!>)! =B z z _B |!<(! =A A!<)! B3 B | G4- G A | %33
w: vant, toi que j'ai- me|et que mon œil re-|\- gret- te, Je|veux te dire a-|dieu,  _ cé-|
 c c f7/2 f/ ||[M:4/4] e2 _c z z B =B B | c2 =B z z2 A A | G2 (3F G F E4 | z2 z B G2 z2 | %38
w: les- te pâ- que-|\- ret- te, Der- nière é-|toi- le qui dans|l'ombre é- tein- ce- las.|A- dieu,|
 z2 B2 B2!<(! B2 ||[K:B][M:3/4]!mf! _e!<)! !>!d3 c d | e3/2 c/ G2 F z | z F A c f3/2 f/ | g6 | %43
w: jus- qu'à ce|soir, fleur du jar-|din noc- tur- ne,|Dont le ca- li- ce|clair,|
 e c B3 A/ G/ | G2 F z d2 |"^rit." f/ e/ d/ c/ ^B3/2 B/ (c/=B/) A/ G/ | %46
w: in- cli- né comme une|ur- ne, Ver-|\- sait à mes re- gards son vin * de ray-|
 g2 !fermata!f2 !fermata!z2 | z6 ||[K:Eb][M:4/4] z8 | z2 z B G2- G z | z4 z G G B | %51
w: ons blancs.|||A- dieu! _|Ton feu pâ-|
 B3 B e2 G G/ G/ | G3 G z4 | z4 z G G G | F2 A2 G2 F F | E2 F G E2 z F | A B B c c4 | z2 B B e4 | %58
w: lit dans l'air plus di- a|\- phan- ne;|Et re- pli-|ant sur toi tes pé-|\- ta- les trem- blants, Par-|mi les prés d'a- zur|ton bou- ton|
 B4- B z z2 | z4 z2 z _c | B6 E2 | z8 | z8 |] %63
w: d'or  _|se|fa- ne.|||
V:2
!p!"_une corde" (AFCE) | (GEB,D) (F!<(!D |A,C) (E!<)!CG,!>(!B,) | (ECD!>)!B,CA,) | (DB,FDAF | %5
 GECA,DB,) |!<(! (FDEDCA,!<)! | DC A,!>(!B, =A,B,)!>)! | %8
!<(! (G,G)!<)! (!arpeggio![^F,^F]!>(!=B,) (G,G)!>)! | (^F,^F-) F!pp! (G,G) (A, | %10
 A) (=A,=A) (B,B) (=B, |!<(!=B) (Cc) (Dd) (E!<)! |!>(!e) (=E=e) (Ff)!pp! (^F!>)! | %13
^f) (^Ff) (Ff) (G |!<(! g) (^F^f) (G!<)!!>(!g) (F |^f) (Gg) (G!>)!g)!ppp![I:staff +1] (G, | %16
[I:staff -1]G[I:staff +1] G,[I:staff -1]G) z z!mf! (F |[I:staff +1]F,)[I:staff -1] x x4 | %18
 z2 z2 z!p! (=E |!<(! F3) (=E!<)! !>!F2-) | F4 (_E2- | E2 _D2 _C2 |!>(! B,6-) | B,6!>)! | z6 | z6 | %26
!pp! (C[EA] C[EA] B,[DG] | B,[DG] A,[CF] A,[CF]) | (B,[DG] C[EA] D[FA] | G[Bd] F[Ac] E[GB]) | %30
!<(! (D[Ac])!<)!!>(! ([A_c]D) (_C!>)!B,) | %31
!pp! !arpeggio![EF]2 z!<(! !arpeggio![_DG]!<)!z!>(![=DA]!>)! | [EG]4- [EG]E | %33
 (EF !arpeggio![DA]4) ||[M:4/4] !arpeggio![EG]4 !arpeggio![EG]4 | !arpeggio![DA]4 A4 | %36
 [DG]4 G3 (^F |!>(! !arpeggio![B,EG]3)!>)! ([A,D] E3)!<(! (^F | %38
 !arpeggio![B,EG]4)!<)! z2!>(! (!arpeggio![A,D]2!>)! || %39
[K:B][M:3/4] !arpeggio![=G,_E])!p! D(D!<(!F,DF!<)! | [A,EF]2 !arpeggio![A,EG]2 !arpeggio![A,FA]2) | %41
 (!arpeggio![DBd]2 !arpeggio![A,EA]2 !arpeggio![=A,D=A]2 |!mf! !arpeggio![G,B]2 G,B, GE) | %43
 (!arpeggio![G,E]2 !arpeggio![B,G]F!>(! !arpeggio![B,^^CG]2 | %44
 !arpeggio![A,E]G!>)! !arpeggio![A,E]C)"_cresc." (!arpeggio![D=Ad]2 | %45
"_rit." !arpeggio![E^Ae]2!f! g/f/^e/d/ ^e>=e | %46
 !arpeggio![EBe]2!p! !arpeggio!!^!!fermata![F^^Gd]4) | %47
"_a tempo"!8va(! (!arpeggio![eac'g']2 !arpeggio![=a^bf']4)!8va)! || %48
[K:Eb][M:4/4] z4 z!>(! [E-^F]!>)! [EG]2- | x4!pp! [G,E](B!tenuto!b) (_c | %50
!tenuto!_c') (B!tenuto!b) (_c!tenuto!c') (B!tenuto!b) (^F | %51
!tenuto!^f) (G!tenuto!g) (^F!tenuto!^f) (G!tenuto!g) (d | d') (^c^c') (dd') (cc') (=c | %53
c') (=B=b) (cc') (_B_b) (c |c') (Bb) (cc') (Bb) (c | c') (Bb) (cc') (Bb) (c | %56
c') (ff') (ee') (ff')!pp! (e |e') (ff') (ee') (ff') (e | e') (ff') (ee')!8va(! (aa') (g | %59
g') (aa') (gg') (aa') a- |!ppp! !arpeggio![ad'a']4 !arpeggio![be'g']4 | z2 !>!b'4 e''2- | %62
 e''8!8va)! |] %63
V:3
!ped! z2 z (E,,- |E,, B,,2 E,,2 B,,- |B,, E,,2 B,,2 E,,-) |E,,!ped-up! (B,,2 E,,2 B,,- | %4
 B,, E,,2 B,,2 E,,- |E,, B,,2 E,,2 B,,-) |B,, (E,,2 B,,2 E,,- | E,, B,,2 E,,2 B,,- | %8
 B,,2) (=B,,^D,,) (_B,,2 | =B,,2- B,,)!ped! (_B,,E,,)!ped-up!!ped! (_C, | %10
 E,,)!ped-up!!ped! (=C,E,,)!ped-up!!ped! (_D,E,,)!ped-up! (=D, |E,,) (E,E,,) (F,E,,) (G, | %12
E,,) (G,E,,) (A,E,,) (=A, |E,,) (=A,E,,) (A,E,,) (B, | E,,) (=A,E,,) (B,E,,) (A, | %15
E,,)!ped! (B,E,,- E,,3-) | E,,3 z!ped-up! z2 | !>!F,6- | F,6 | z2 z (=E, F,2-) | F,4 (_E,2- | %21
 E,2 _D,2 _C,2 | B,,6) | ([B,,,B,,]2 [A,,,A,,]2 [_G,,,_G,,]2 |!pp! [F,,,F,,]6) | %25
"^sans Ped." [B,,,B,,] z [B,,,B,,] z [B,,,B,,] z |!ped! z E,,2 B,,2 E,,- |E,, B,,2 E,,2 B,,- | %28
B,, E,,2 B,,2 E,,- |E,, B,,2 E,,2 (B,,- | B,, E,3)!ped-up! (A,G,) | %31
 !arpeggio!._C2 z (!arpeggio!E, B,2) | z .B,, .E,,.B,, z (B,,- | B,, E,,2 B,,3- || %34
[M:4/4] B,,) (E,,2 B,,2 E,,2 B,,- |B,, E,,2 B,,2 E,,2 B,,- | %36
B,, E,,2 B,,- B,,) (E,,2!<(! !arpeggio!_C,)!<)! | !arpeggio!B,,3 (B,,- B,, E,,2) (!arpeggio!_C, | %38
 !arpeggio!B,,4) z2 (!arpeggio!B,,2 ||[K:B][M:3/4] !arpeggio!_E,,)!arpeggio![B,,,B,,]- [B,,,B,,]4 | %40
 (F,,2 C,2 F,,2) | (!arpeggio![F,B,]2 !arpeggio!C,2 !arpeggio!=C,2 | %42
 !arpeggio![E,,B,,]4) (E,,(G,,) | !arpeggio!C,2 !arpeggio!^E,F, !arpeggio!E,2 | %44
 !arpeggio!C,2 !arpeggio!F,,2) !arpeggio![^B,,F,^B,]2 | %45
 !arpeggio![C,F,C]2 !arpeggio![G,DF]2 !arpeggio![C,G,C]2 | %46
 !arpeggio![F,,C,F,C]2 !arpeggio!!^!!fermata![F,^B,]4 | %47
[K:treble] (!arpeggio![Fc]2 !arpeggio![F^Bd]4) || %48
[K:Eb][M:4/4][K:bass] z2!p! z!<(! (=B,C!<)!B,) _B,2- | %49
 B,2 (_C,!arpeggio!B,,)!ped! (E,,3"^sans  trainer" B,, | E,,3 B,, E,,3 B,, | E,,3 B,, E,,3 B,, | %52
 E,,3 B,, E,,3 B,,)!ped-up! | x6 ([B,G]2 | [A,F]6) ([A,F]2 | [G,E]6) ([F,D]2 | [E,C]6) ([A,C]2 | %57
 [G,B,]6) ([A,C]2 | [G,B,]6) (_C2 | B,2) E4[K:treble] (_c2 | !arpeggio![Bdf]4) !arpeggio![eg]4 | %61
 !arpeggio![eg]4 !arpeggio![eg]4- | [eg]8 |] %63
V:4
 x4 | x6 | x6 | x6 | x6 | x6 | x6 | x6 | x6 | x6 | x6 | x6 | x6 | x6 | x6 | x6 | x6 | z6 | x6 | %19
 x6 | x6 | x6 | x6 | x6 | x6 | x6 | C2 C2 B,2 | B,2 A,2 A,2 | B,2 C2 D2 | G2 F2 E2 | D2 x4 | x6 | %32
 x5 (!arpeggio!_C | !arpeggio!=C2) (_CB,CD) ||[M:4/4] E(B, _CE) E(B, CE) | %35
 D(B, _CD) !arpeggio!=C(=B, CE) | D(B, _CB,) !arpeggio!E=A, B,!arpeggio![A,E] | %37
 x4 G,(=A, B,)!arpeggio![A,E] | x8 ||[K:B][M:3/4] x !arpeggio![F,D]4 z | A,C A,C A,E | %41
 D!<(!F A,C =A,F!<)! | G,B, x4 | B,C ^^CD x2 | x4 DF | EF !arpeggio![^Bg]2 !arpeggio![^E=B^e]2 | %46
 E/D/E/^E/ D4 |!8va(! e/d/e/^e/ f4!8va)! ||[K:Eb][M:4/4] x8 | [EG]2 x (!arpeggio![A,D] E) x3 | x8 | %51
 x8 | x8 | x8 | x8 | x8 | x8 | x8 | x5!8va(! x3 | x8 | x8 | %61
 !arpeggio![be'g']4!>(! !arpeggio![be'g']4-!>)! | [be'g']8!8va)! |] %63
V:5
 x4 | x6 | x6 | x6 | x6 | x6 | x6 | x6 | x6 | x6 | x6 | x6 | x6 | x6 | x6 | x6 | x6 | x6 | x6 | %19
 x6 | x6 | x6 | x6 | x6 | x6 | x6 | x6 | x6 | x6 | x6 | x6 | x6 | x6 | x6 ||[M:4/4] x8 | x8 | x8 | %37
 x8 | x8 ||[K:B][M:3/4] x6 | x6 | x6 | x6 | x6 | x4 ^B,,F, | C,F,, G,G,, C,>F,,- | F,,2 x4 | %47
[K:treble] x6 ||[K:Eb][M:4/4][K:bass] x8 | x8 | x8 | x8 | x8 | E,,8- | E,,2 E,,6- | E,,2 E,,6- | %56
 E,,2 E,,6- | E,,2 E,,6- | E,,2 E,,6 | x6[K:treble] x2 | x8 | x8 | x8 |] %63

